!!! OTL: Literature55
!!! Chapter: 5
!!! Section: II
!!! Page: 357
!!! Mode: 
!!! Encoder: DJB
**kern
*staff1
*I"Piano
=1-
*clefC3
*k[b-]
*F:
*M3/4
4r
4r
4c\
=2
4F/
4F/
4F/
=3
4G/
4E/
4c\
=4
4G/
4G/
4G/
=5
4A/
4F/
4c\
=6
4c\
8A/L
8c/J
8A/L
8c/J
=7
4B-/
4G/
4G/
=8
4B-/
8G/L
8B-/J
8G/L
8B-/J
=9
2A/
4c\
=10
8f\L
8e\J
8d\L
8c\J
8B-/L
8A/J
=11
4c\
4B-/
4c\
=12
!!linebreak:original
8e\L
8d\J
8c/L
8A/J
8B-/L
8G/J
=13
4d\
4c\
4c\
=14
8a\L
8g\J
8f\L
8e\J
8d\L
8c\J
=15
4e\
4d\
4G/
=16
8c\L
8d\J
8e\L
8f\J
8g\L
8c\J
=17
2f\
4r
==
*-
